layouts/icon-pack/armor_bracelet.svg

<?xml version="1.0" encoding="UTF-8"?>
<svg width="1200pt" height="1200pt" version="1.1" viewBox="0 0 1200 1200" xmlns="http://www.w3.org/2000/svg">
 <g fill="#fff">
  <path d="m82.359 773.44c120.61-10.617 238.73-90.984 297.33-136.73 9.8867-7.7109 15.988-19.297 16.762-31.809 0.76953-12.516-3.8672-24.762-12.73-33.629l-114.54-114.47c-8.0273-8.0508-18.988-12.477-30.355-12.254-11.367 0.21875-22.148 5.0703-29.855 13.426-110.53 120.68-147.89 223.55-160.41 277.03-2.2188 9.8789 0.42578 20.223 7.1094 27.824 6.6875 7.6055 16.605 11.551 26.688 10.613z"/>
  <path d="m1109.7 280.1c-26.961-11.117-51.488-27.41-72.188-47.953l-48.984-49.008c-29.578-30.047-55.363-63.602-76.781-99.914-2.6523-4.4336-5.6211-8.6719-8.8828-12.68-14.227-17.25-42.188-9.6797-46.711 12.234-15.328 75.633-73.312 262.29-292.24 481.1-218.93 218.81-405.28 276.87-480.98 292.1-21.961 4.4297-29.625 32.484-12.352 46.734 4.0039 3.3008 8.2422 6.3086 12.68 9 36.32 21.457 69.875 47.281 99.914 76.898l49.008 48.984c20.543 20.699 36.836 45.227 47.953 72.188 5.1953 12.535 13.969 23.262 25.223 30.84 11.254 7.5742 24.492 11.672 38.059 11.77 95.039 0.67969 198.14-41.273 288.28-92.438 178.76-101.45 326.72-249.41 428.18-428.16 51.164-90.188 93.117-193.29 92.438-288.28-0.070312-13.59-4.1523-26.859-11.734-38.141-7.5781-11.285-18.32-20.078-30.875-25.281z"/>
  <path d="m735 48.562c-53.484 12.516-156.35 49.875-277.03 160.41-8.3555 7.707-13.207 18.488-13.426 29.855-0.22266 11.367 4.2031 22.328 12.254 30.355l114.47 114.49c8.8594 8.8711 21.102 13.512 33.617 12.75 12.516-0.76172 24.102-6.8555 31.82-16.734 45.75-58.594 126.12-176.72 136.73-297.33 0.9375-10.082-3.0078-20-10.613-26.688-7.6016-6.6836-17.945-9.3281-27.824-7.1094z"/>
 </g>
</svg>

<?xml version="1.0" encoding="UTF-8" standalone="no"?>
<!DOCTYPE svg PUBLIC "-//W3C//DTD SVG 1.1//EN" "http://www.w3.org/Graphics/SVG/1.1/DTD/svg11.dtd">
<svg width="100%" height="100%" viewBox="0 0 512 512" version="1.1" xmlns="http://www.w3.org/2000/svg" xmlns:xlink="http://www.w3.org/1999/xlink" xml:space="preserve" xmlns:serif="http://www.serif.com/" style="fill-rule:evenodd;clip-rule:evenodd;stroke-linejoin:round;stroke-miterlimit:2;">
    <g transform="matrix(1,0,0,1,-47.7917,-47.7914)">
        <g transform="matrix(0.463512,0,0,0.463512,25.6397,25.6395)">
            <path d="M82.359,773.44C202.969,762.823 321.089,682.456 379.689,636.71C389.576,628.999 395.677,617.413 396.451,604.901C397.221,592.385 392.584,580.139 383.721,571.272L269.181,456.802C261.154,448.751 250.193,444.325 238.826,444.548C227.459,444.767 216.678,449.618 208.971,457.974C98.441,578.654 61.081,681.524 48.561,735.004C46.342,744.883 48.987,755.227 55.67,762.828C62.358,770.433 72.275,774.379 82.358,773.441L82.359,773.44Z" style="fill:white;fill-rule:nonzero;"/>
            <path d="M1109.7,280.1C1082.74,268.983 1058.21,252.69 1037.51,232.147L988.528,183.139C958.95,153.092 933.165,119.537 911.747,83.225C909.095,78.791 906.126,74.553 902.864,70.545C888.637,53.295 860.676,60.865 856.153,82.779C840.825,158.412 782.841,345.069 563.913,563.879C344.983,782.689 158.633,840.749 82.933,855.979C60.972,860.409 53.308,888.463 70.581,902.713C74.585,906.014 78.823,909.022 83.261,911.713C119.581,933.17 153.136,958.994 183.175,988.611L232.183,1037.6C252.726,1058.29 269.019,1082.82 280.136,1109.78C285.331,1122.32 294.105,1133.05 305.359,1140.62C316.613,1148.2 329.851,1152.3 343.418,1152.39C438.457,1153.07 541.558,1111.12 631.698,1059.95C810.458,958.505 958.418,810.545 1059.88,631.795C1111.04,541.607 1153,438.505 1152.32,343.515C1152.25,329.925 1148.16,316.656 1140.58,305.374C1133,294.089 1122.26,285.296 1109.71,280.093L1109.7,280.1Z" style="fill:white;fill-rule:nonzero;"/>
            <path d="M735,48.562C681.516,61.078 578.65,98.437 457.97,208.972C449.615,216.679 444.763,227.46 444.544,238.827C444.321,250.194 448.747,261.155 456.798,269.182L571.268,383.672C580.127,392.543 592.37,397.184 604.885,396.422C617.401,395.66 628.987,389.566 636.705,379.688C682.455,321.094 762.825,202.968 773.435,82.358C774.373,72.276 770.427,62.358 762.822,55.67C755.22,48.986 744.877,46.342 734.998,48.561L735,48.562Z" style="fill:white;fill-rule:nonzero;"/>
        </g>
    </g>
</svg>
